X:1
T:Ranzo Ray
M:6/8
L:1/4
K:F
 z z/2 c A/2| F G/2 F F/2| F G/2 A B/2| c c/2 d c/2| A3/2 F3/2| G3/2 G3/2|\
 A- B/2 c f/2| d3/2 B3/2| c3/2 f e/2| d d/2 d d/2| d/2 c A F/2| G G/2 A F/2|\
 D/2 D/2- C3/2 z/2| F3/2 A3/2| G c3/2 z/2| F3/2 z z/2|
